public/icons/Max.svg

<svg xmlns="http://www.w3.org/2000/svg" viewBox="0 0 720 720"><path fill="#fff" d="M350.4,9.6C141.8,20.5,4.1,184.1,12.8,390.4c3.8,90.3,40.1,168,48.7,253.7,2.2,22.2-4.2,49.6,21.4,59.3,31.5,11.9,79.8-8.1,106.2-26.4,9-6.1,17.6-13.2,24.2-22,27.3,18.1,53.2,35.6,85.7,43.4,143.1,34.3,299.9-44.2,369.6-170.3C799.6,291.2,622.5-4.6,350.4,9.6h0ZM269.4,504c-11.3,8.8-22.2,20.8-34.7,27.7-18.1,9.7-23.7-.4-30.5-16.4-21.4-50.9-24-137.6-11.5-190.9,16.8-72.5,72.9-136.3,150-143.1,78-6.9,150.4,32.7,183.1,104.2,72.4,159.1-112.9,316.2-256.4,218.6h0Z"/></svg>

<svg width="720" height="720" viewBox="0 0 720 720" fill="none" xmlns="http://www.w3.org/2000/svg">
<path d="M350.4 9.60003C141.8 20.5 4.10004 184.1 12.8 390.4C16.6 480.7 52.9 558.4 61.5 644.1C63.7 666.3 57.3 693.7 82.9 703.4C114.4 715.3 162.7 695.3 189.1 677C198.1 670.9 206.7 663.8 213.3 655C240.6 673.1 266.5 690.6 299 698.4C442.1 732.7 598.9 654.2 668.6 528.1C799.6 291.2 622.5 -4.59997 350.4 9.60003ZM269.4 504C258.1 512.8 247.2 524.8 234.7 531.7C216.6 541.4 211 531.3 204.2 515.3C182.8 464.4 180.2 377.7 192.7 324.4C209.5 251.9 265.6 188.1 342.7 181.3C420.7 174.4 493.1 214 525.8 285.5C598.2 444.6 412.9 601.7 269.4 504.1V504Z" fill="#121212"/>
</svg>
